X: 1
T: Lindgrens Tivoli
C: av Olle Moraeus (Orsa, Sverige)
R: march
Z: 2017 John Chambers <jc:trillian.mit.edu>
N: fr\aan Orsa Spelm\"an
S: handwritten MS of unknown origin.
S: http://bluerose.karenlmyers.org/media/trans/2501.pdf
S: https://www.youtube.com/watch?v=1gOMGZlZNBY
S: https://www.youtube.com/watch?v=EAIZjcPlMwU
%%slurgraces 1
%%graceslurs 1
M: 2/4
L: 1/16
K: D
D2- |:\
"D"D3F A2d2 | fgfe fdAF |\
"G"G3g Tgfga | "(A7)"g6 fg |\
"A7"A3c e2f2 | Tgfga {a}b2ga |
[1,3 {a}b3a a2e2 | "D"g2f2 f4 :|\
[2,3 {a}b3a a2c2 | "D"{e2}d4- d2z2 :| [K:A]\
|:\
"A"E3A A2A2 | E3c c2c2 |\
"D"A3d d2d2 | "E7"B4 {f}fgfe |
dedc BcBA | GAGF E4 |\
[1,3 "E7"{g}gagf efed | "A"cdef "(E7)"e4 :|\
[2,4 EGBc defg | "A"{g}a4- a2z2 :|
